src/assets/svg/dots.svg

<svg fill="none" height="7" viewBox="0 0 18 7" width="18" xmlns="http://www.w3.org/2000/svg" xmlns:xlink="http://www.w3.org/1999/xlink"><clipPath id="a"><path d="m0 0h18v7h-18z"/></clipPath><g clip-path="url(#a)" fill="#8c90a0"><path d="m2 5.66666c0-.55229-.44772-1-1-1-.552285 0-1 .44771-1 1 0 .55228.447715 1 1 1 .55228 0 1-.44772 1-1z"/><path d="m2 1.66666c0-.55229-.44772-1.000004-1-1.000004-.552285 0-1 .447714-1 1.000004 0 .55228.447715 1 1 1 .55228 0 1-.44772 1-1z"/><path d="m7.33334 5.66666c0-.55229-.44771-1-1-1-.55228 0-1 .44771-1 1 0 .55228.44772 1 1 1 .55229 0 1-.44772 1-1z"/><path d="m7.33334 1.66666c0-.55229-.44771-1.000004-1-1.000004-.55228 0-1 .447714-1 1.000004 0 .55228.44772 1 1 1 .55229 0 1-.44772 1-1z"/><path d="m12.6667 5.66666c0-.55229-.4477-1-1-1s-1 .44771-1 1c0 .55228.4477 1 1 1s1-.44772 1-1z"/><path d="m12.6667 1.66666c0-.55229-.4477-1.000004-1-1.000004s-1 .447714-1 1.000004c0 .55228.4477 1 1 1s1-.44772 1-1z"/><path d="m18 5.66666c0-.55229-.4477-1-1-1s-1 .44771-1 1c0 .55228.4477 1 1 1s1-.44772 1-1z"/><path d="m18 1.66666c0-.55229-.4477-1.000004-1-1.000004s-1 .447714-1 1.000004c0 .55228.4477 1 1 1s1-.44772 1-1z"/></g></svg>

<svg width="18" height="7" viewBox="0 0 18 7" fill="none" xmlns="http://www.w3.org/2000/svg">
<g clip-path="url(#clip0_1635_38459)">
<path d="M2 5.66666C2 5.11437 1.55228 4.66666 1 4.66666C0.447715 4.66666 0 5.11437 0 5.66666C0 6.21894 0.447715 6.66666 1 6.66666C1.55228 6.66666 2 6.21894 2 5.66666Z" fill="#8C90A0"/>
<path d="M2 1.66666C2 1.11437 1.55228 0.666656 1 0.666656C0.447715 0.666656 0 1.11437 0 1.66666C0 2.21894 0.447715 2.66666 1 2.66666C1.55228 2.66666 2 2.21894 2 1.66666Z" fill="#8C90A0"/>
<path d="M7.33334 5.66666C7.33334 5.11437 6.88563 4.66666 6.33334 4.66666C5.78106 4.66666 5.33334 5.11437 5.33334 5.66666C5.33334 6.21894 5.78106 6.66666 6.33334 6.66666C6.88563 6.66666 7.33334 6.21894 7.33334 5.66666Z" fill="#8C90A0"/>
<path d="M7.33334 1.66666C7.33334 1.11437 6.88563 0.666656 6.33334 0.666656C5.78106 0.666656 5.33334 1.11437 5.33334 1.66666C5.33334 2.21894 5.78106 2.66666 6.33334 2.66666C6.88563 2.66666 7.33334 2.21894 7.33334 1.66666Z" fill="#8C90A0"/>
<path d="M12.6667 5.66666C12.6667 5.11437 12.219 4.66666 11.6667 4.66666C11.1144 4.66666 10.6667 5.11437 10.6667 5.66666C10.6667 6.21894 11.1144 6.66666 11.6667 6.66666C12.219 6.66666 12.6667 6.21894 12.6667 5.66666Z" fill="#8C90A0"/>
<path d="M12.6667 1.66666C12.6667 1.11437 12.219 0.666656 11.6667 0.666656C11.1144 0.666656 10.6667 1.11437 10.6667 1.66666C10.6667 2.21894 11.1144 2.66666 11.6667 2.66666C12.219 2.66666 12.6667 2.21894 12.6667 1.66666Z" fill="#8C90A0"/>
<path d="M18 5.66666C18 5.11437 17.5523 4.66666 17 4.66666C16.4477 4.66666 16 5.11437 16 5.66666C16 6.21894 16.4477 6.66666 17 6.66666C17.5523 6.66666 18 6.21894 18 5.66666Z" fill="#8C90A0"/>
<path d="M18 1.66666C18 1.11437 17.5523 0.666656 17 0.666656C16.4477 0.666656 16 1.11437 16 1.66666C16 2.21894 16.4477 2.66666 17 2.66666C17.5523 2.66666 18 2.21894 18 1.66666Z" fill="#8C90A0"/>
</g>
<defs>
<clipPath id="clip0_1635_38459">
<rect width="18" height="7" fill="white"/>
</clipPath>
</defs>
</svg>
